icons/zodiac-pisces.svg

<svg width="24" height="24" viewBox="0 0 24 24" fill="none" xmlns="http://www.w3.org/2000/svg">
<path fill-rule="evenodd" clip-rule="evenodd" d="M4.57143 2.09673C5.07043 1.86003 5.66682 2.07267 5.90351 2.57166C7.15816 5.21669 7.87084 8.08241 8.0036 11.0002H15.9964C16.1292 8.08241 16.8419 5.21669 18.0965 2.57166C18.3332 2.07267 18.9296 1.86003 19.4286 2.09673C19.9276 2.33342 20.1402 2.92981 19.9035 3.42881C18.776 5.8059 18.1299 8.37907 17.9987 11.0002H19C19.5523 11.0002 20 11.4479 20 12.0002C20 12.5525 19.5523 13.0002 19 13.0002H17.9987C18.1299 15.6214 18.776 18.1946 19.9035 20.5717C20.1402 21.0707 19.9276 21.667 19.4286 21.9037C18.9296 22.1404 18.3332 21.9278 18.0965 21.4288C16.8419 18.7838 16.1292 15.9181 15.9964 13.0002H8.0036C7.87084 15.9181 7.15816 18.7838 5.90351 21.4288C5.66682 21.9278 5.07043 22.1404 4.57143 21.9037C4.07244 21.667 3.8598 21.0707 4.0965 20.5717C5.22405 18.1946 5.87011 15.6214 6.00133 13.0002H5.00001C4.44772 13.0002 4.00001 12.5525 4.00001 12.0002C4.00001 11.4479 4.44772 11.0002 5.00001 11.0002H6.00133C5.87011 8.37907 5.22405 5.8059 4.0965 3.42881C3.8598 2.92981 4.07244 2.33342 4.57143 2.09673Z" fill="black"/>
</svg>

<svg
  width="24"
  height="24"
  viewBox="0 0 24 24"
  xmlns="http://www.w3.org/2000/svg"
>
  <path
    fill-rule="evenodd"
    clip-rule="evenodd"
    d="M4.571 2.097a1 1 0 0 1 1.333.475A22 22 0 0 1 8.004 11h7.992a22.002 22.002 0 0 1 2.1-8.428 1 1 0 0 1 1.808.857A20 20 0 0 0 17.998 11H19a1 1 0 1 1 0 2h-1.001a20 20 0 0 0 1.905 7.572 1 1 0 1 1-1.808.857 22.001 22.001 0 0 1-2.1-8.429H8.004a22 22 0 0 1-2.1 8.429 1 1 0 0 1-1.808-.857A20 20 0 0 0 6.002 13H5a1 1 0 1 1 0-2h1.001A20 20 0 0 0 4.096 3.43a1 1 0 0 1 .475-1.332z"
  />
</svg>
